svg/crosshairs.svg

<svg width="32" height="32" fill="none" xmlns="http://www.w3.org/2000/svg"><path fill-rule="evenodd" clip-rule="evenodd" d="M26 16c0 5.523-4.477 10-10 10S6 21.523 6 16 10.477 6 16 6s10 4.477 10 10zm2 0c0 6.627-5.373 12-12 12S4 22.627 4 16 9.373 4 16 4s12 5.373 12 12z" fill="#000"/><path d="M16 11c-.552 0-1-.392-1-.875v-5.25c0-.483.448-.875 1-.875s1 .392 1 .875v5.25c0 .483-.448.875-1 .875zM16 28c-.552 0-1-.392-1-.875v-5.25c0-.483.448-.875 1-.875s1 .392 1 .875v5.25c0 .483-.448.875-1 .875zM11 16c0 .552-.392 1-.875 1h-5.25C4.392 17 4 16.552 4 16s.392-1 .875-1h5.25c.483 0 .875.448.875 1zM28 16c0 .552-.392 1-.875 1h-5.25c-.483 0-.875-.448-.875-1s.392-1 .875-1h5.25c.483 0 .875.448.875 1z" fill="#000"/></svg>

<svg width="32" height="32" viewBox="0 0 32 32" fill="none" xmlns="http://www.w3.org/2000/svg">
<path fill-rule="evenodd" clip-rule="evenodd" d="M26 16C26 21.523 21.523 26 16 26C10.477 26 6 21.523 6 16C6 10.477 10.477 6 16 6C21.523 6 26 10.477 26 16ZM28 16C28 22.627 22.627 28 16 28C9.373 28 4 22.627 4 16C4 9.373 9.373 4 16 4C22.627 4 28 9.373 28 16Z" fill="black"/>
<path d="M16 11C15.448 11 15 10.608 15 10.125V4.875C15 4.392 15.448 4 16 4C16.552 4 17 4.392 17 4.875V10.125C17 10.608 16.552 11 16 11Z" fill="black"/>
<path d="M16 28C15.448 28 15 27.608 15 27.125V21.875C15 21.392 15.448 21 16 21C16.552 21 17 21.392 17 21.875V27.125C17 27.608 16.552 28 16 28Z" fill="black"/>
<path d="M11 16C11 16.552 10.608 17 10.125 17H4.875C4.392 17 4 16.552 4 16C4 15.448 4.392 15 4.875 15H10.125C10.608 15 11 15.448 11 16Z" fill="black"/>
<path d="M28 16C28 16.552 27.608 17 27.125 17H21.875C21.392 17 21 16.552 21 16C21 15.448 21.392 15 21.875 15H27.125C27.608 15 28 15.448 28 16Z" fill="black"/>
</svg>
